X:1
T:Title
L:1/8
Q:1/4=100
M:2/4
K:C
V:1 treble nm="Church Organ, Staff"
V:1
 Gc Bc | A G2 E | ED AG | F E3 | Gc Bc | A B2 G | BA ^GF | ^G E3 | EF GA | B c2 G | cd ed | c B3 | %12
w: By~Rev.~J.~S.~B.~Hodges * * *||||||||||||
 Bc BA | G A2 d | c B2 A- | A G3 | Gc Bc | A G2 E | G A2 F- | F D3 | Gc Bc | A G2 c | e d2 d- | %23
w: |||||||||||
 d G3 | GA Bc | d G2 c | c e2 d- | d c3 |] %28
w: |||||

